; G-Code generated by Simplify3D(R) Version 4.1.2
; May 7, 2022 at 3:07:32 PM
; Settings Summary
;   processName,Process1
;   applyToModels,Triangle
;   profileName,Default (modified)
;   profileVersion,2017-03-01 08:00:00
;   baseProfile,Default (modified)
;   printMaterial,PLA
;   printQuality,new quality
;   printExtruders,
;   extruderName,Primary Extruder
;   extruderToolheadNumber,0
;   extruderDiameter,0.4
;   extruderAutoWidth,0
;   extruderWidth,0.4
;   extrusionMultiplier,0.9
;   extruderUseRetract,1
;   extruderRetractionDistance,2.4
;   extruderExtraRestartDistance,0
;   extruderRetractionZLift,0
;   extruderRetractionSpeed,3600
;   extruderUseCoasting,0
;   extruderCoastingDistance,0.2
;   extruderUseWipe,0
;   extruderWipeDistance,5
;   primaryExtruder,0
;   layerHeight,0.3
;   topSolidLayers,2
;   bottomSolidLayers,2
;   perimeterOutlines,2
;   printPerimetersInsideOut,1
;   startPointOption,2
;   startPointOriginX,0
;   startPointOriginY,0
;   sequentialIslands,0
;   spiralVaseMode,0
;   firstLayerHeightPercentage,90
;   firstLayerWidthPercentage,100
;   firstLayerUnderspeed,0.5
;   useRaft,0
;   raftExtruder,0
;   raftTopLayers,3
;   raftBaseLayers,2
;   raftOffset,3
;   raftSeparationDistance,0.14
;   raftTopInfill,100
;   aboveRaftSpeedMultiplier,0.3
;   useSkirt,1
;   skirtExtruder,0
;   skirtLayers,1
;   skirtOutlines,3
;   skirtOffset,5
;   usePrimePillar,0
;   primePillarExtruder,999
;   primePillarWidth,12
;   primePillarLocation,7
;   primePillarSpeedMultiplier,1
;   useOozeShield,0
;   oozeShieldExtruder,999
;   oozeShieldOffset,2
;   oozeShieldOutlines,1
;   oozeShieldSidewallShape,1
;   oozeShieldSidewallAngle,30
;   oozeShieldSpeedMultiplier,1
;   infillExtruder,0
;   internalInfillPattern,Grid
;   externalInfillPattern,Rectilinear
;   infillPercentage,25
;   outlineOverlapPercentage,20
;   infillExtrusionWidthPercentage,100
;   minInfillLength,5
;   infillLayerInterval,1
;   internalInfillAngles,45,-45
;   overlapInternalInfillAngles,1
;   externalInfillAngles,45,-45
;   generateSupport,0
;   supportExtruder,0
;   supportInfillPercentage,30
;   supportExtraInflation,0
;   supportBaseLayers,0
;   denseSupportExtruder,0
;   denseSupportLayers,0
;   denseSupportInfillPercentage,70
;   supportLayerInterval,1
;   supportHorizontalPartOffset,0.3
;   supportUpperSeparationLayers,1
;   supportLowerSeparationLayers,1
;   supportType,0
;   supportGridSpacing,4
;   maxOverhangAngle,45
;   supportAngles,0
;   temperatureName,Extrusor,Cama
;   temperatureNumber,0,0
;   temperatureSetpointCount,1,1
;   temperatureSetpointLayers,1,1
;   temperatureSetpointTemperatures,175,60
;   temperatureStabilizeAtStartup,1,1
;   temperatureHeatedBed,0,1
;   fanLayers,1,2
;   fanSpeeds,0,100
;   blipFanToFullPower,0
;   adjustSpeedForCooling,1
;   minSpeedLayerTime,15
;   minCoolingSpeedSlowdown,20
;   increaseFanForCooling,0
;   minFanLayerTime,45
;   maxCoolingFanSpeed,100
;   increaseFanForBridging,0
;   bridgingFanSpeed,100
;   use5D,1
;   relativeEdistances,0
;   allowEaxisZeroing,1
;   independentExtruderAxes,0
;   includeM10123,0
;   stickySupport,1
;   applyToolheadOffsets,0
;   gcodeXoffset,0
;   gcodeYoffset,0
;   gcodeZoffset,0
;   overrideMachineDefinition,1
;   machineTypeOverride,0
;   strokeXoverride,200
;   strokeYoverride,300
;   strokeZoverride,200
;   originOffsetXoverride,0
;   originOffsetYoverride,0
;   originOffsetZoverride,0
;   homeXdirOverride,-1
;   homeYdirOverride,-1
;   homeZdirOverride,-1
;   flipXoverride,1
;   flipYoverride,-1
;   flipZoverride,1
;   toolheadOffsets,0,0|0,0|0,0|0,0|0,0|0,0
;   overrideFirmwareConfiguration,1
;   firmwareTypeOverride,RepRap (Marlin/Repetier/Sprinter)
;   GPXconfigOverride,r2
;   baudRateOverride,115200
;   overridePrinterModels,0
;   printerModelsOverride
;   startingGcode,;BEGIN::Starting Script,M106 S[fan_speed_percentage]		;Configuro ventilador,G28			;Home,G1 Z10 F100			;Levanto el eje Z 1cm,M140 S[bed0_temperature]		;Configuro temperatura inicial de la cama,M190 S[bed0_temperature]		;Espero temperatura inivisl de la cama,G29			;Calibracion de altura automatica,G1 Z50 F200			;Levanto el eje Z 5cm para limpiar,M104 S[extruder0_temperature] T0	;Configuro temperatura inicial extrusor,M109 S[extruder0_temperature] T0	;Espero temperatura inicial extrusor,;END::Starting Script
;   layerChangeGcode,
;   retractionGcode,
;   toolChangeGcode,
;   endingGcode,;BEGIN::Ending Script,M104 S0	;Apago el extrusor,M140 S0	;Apago la cama,G1 X0 Y0 F4800	;Muevo el modelo al origen,M84 	;Desabilito los motores,;END::Ending Script
;   exportFileFormat,gcode
;   celebration,0
;   celebrationSong,Random Song
;   postProcessing,python D:\3DPrint\Calibration\Skew\SkewCorrection.py --replace --input [output_filepath]
;   defaultSpeed,3600
;   outlineUnderspeed,0.5
;   solidInfillUnderspeed,0.8
;   supportUnderspeed,0.8
;   rapidXYspeed,7200
;   rapidZspeed,1002
;   minBridgingArea,50
;   bridgingExtraInflation,0
;   bridgingExtrusionMultiplier,1
;   bridgingSpeedMultiplier,1
;   useFixedBridgingAngle,0
;   fixedBridgingAngle,0
;   applyBridgingToPerimeters,0
;   filamentDiameters,1.75|1.75|1.75|1.75|1.75|1.75
;   filamentPricesPerKg,1310|46|46|46|46|46
;   filamentDensities,1.25|1.25|1.25|1.25|1.25|1.25
;   useMinPrintHeight,0
;   minPrintHeight,0
;   useMaxPrintHeight,0
;   maxPrintHeight,0
;   useDiaphragm,0
;   diaphragmLayerInterval,20
;   robustSlicing,1
;   mergeAllIntoSolid,0
;   onlyRetractWhenCrossingOutline,1
;   retractBetweenLayers,1
;   useRetractionMinTravel,0
;   retractionMinTravel,3
;   retractWhileWiping,0
;   onlyWipeOutlines,1
;   avoidCrossingOutline,0
;   maxMovementDetourFactor,3
;   toolChangeRetractionDistance,12
;   toolChangeExtraRestartDistance,-0.5
;   toolChangeRetractionSpeed,600
;   externalThinWallType,0
;   internalThinWallType,2
;   thinWallAllowedOverlapPercentage,10
;   singleExtrusionMinLength,1
;   singleExtrusionMinPrintingWidthPercentage,50
;   singleExtrusionMaxPrintingWidthPercentage,200
;   singleExtrusionEndpointExtension,0.2
;   horizontalSizeCompensation,0
G90
M82
;BEGIN::Starting Script
M106 S0		;Configuro ventilador
G28			;Home
G1 Z10 F100			;Levanto el eje Z 1cm
M140 S60		;Configuro temperatura inicial de la cama
M190 S60		;Espero temperatura inivisl de la cama
G29			;Calibracion de altura automatica
G1 Z50 F200			;Levanto el eje Z 5cm para limpiar
M104 S175 T0	;Configuro temperatura inicial extrusor
M109 S175 T0	;Espero temperatura inicial extrusor
;END::Starting Script
; process Process1
; layer 1, Z = 0.270
T0
G92 E0.0000
G1 E-2.4000 F3600
; feature skirt
; tool H0.270 W0.400
G1 Z0.270 F1002
G1 X4.000 Y7.515 F7200
G1 E0.0000 F3600
G92 E0.0000
G1 X7.515 Y4.000 E0.2009 F1800
G1 X192.485 Y4.000 E7.6757
G1 X196.000 Y7.515 E7.8766
G1 X196.000 Y15.856 E8.2137
G1 X195.521 Y17.499 E8.2828
G1 X19.236 Y294.519 E21.5520
G1 X16.539 Y296.000 E21.6763
G1 X7.515 Y296.000 E22.0410
G1 X4.000 Y292.485 E22.2419
G1 X4.000 Y7.515 E33.7578
G92 E0.0000
G1 E-2.4000 F3600
G1 X4.400 Y7.680 F7200
G1 E0.0000 F3600
G92 E0.0000
G1 X7.680 Y4.400 E0.1875 F1800
G1 X192.320 Y4.400 E7.6489
G1 X195.600 Y7.680 E7.8364
G1 X195.600 Y15.799 E8.1645
G1 X195.153 Y17.333 E8.2290
G1 X18.954 Y294.218 E21.4918
G1 X16.436 Y295.600 E21.6078
G1 X7.680 Y295.600 E21.9616
G1 X4.400 Y292.320 E22.1491
G1 X4.400 Y7.680 E33.6517
G92 E0.0000
G1 E-2.4000 F3600
G1 X4.800 Y7.846 F7200
G1 E0.0000 F3600
G92 E0.0000
G1 X7.846 Y4.800 E0.1741 F1800
G1 X192.154 Y4.800 E7.6222
G1 X195.200 Y7.846 E7.7962
G1 X195.200 Y15.742 E8.1153
G1 X194.785 Y17.166 E8.1753
G1 X18.671 Y293.917 E21.4315
G1 X16.333 Y295.200 E21.5393
G1 X7.846 Y295.200 E21.8823
G1 X4.800 Y292.154 E22.0563
G1 X4.800 Y7.846 E33.5455
G92 E0.0000
G1 E-2.4000 F3600
; feature inner perimeter
G1 X10.600 Y10.600 F7200
G1 E0.0000 F3600
G92 E0.0000
G1 X189.400 Y10.600 E7.2255 F1350
G1 X189.400 Y14.825 E7.3962
G1 X14.671 Y289.400 E20.5483
G1 X10.600 Y289.400 E20.7128
G1 X10.600 Y10.600 E31.9794
; feature outer perimeter
G1 X10.200 Y10.200 F7200
G92 E0.0000
G1 X189.800 Y10.200 E7.2578 F900
G1 X189.800 Y14.942 E7.4494
G1 X14.890 Y289.800 E20.6151
G1 X10.200 Y289.800 E20.8046
G1 X10.200 Y10.200 E32.1035
; feature inner perimeter
G1 X14.400 Y14.400 F7200
G92 E0.0000
G1 X14.400 Y138.048 E4.9968 F1350
G1 X15.262 Y138.301 E5.0331
G1 X94.913 Y14.400 E10.9854
G1 X14.400 Y14.400 E14.2390
; feature outer perimeter
G1 X14.800 Y14.800 F7200
G92 E0.0000
G1 X14.800 Y137.749 E4.9685 F900
G1 X15.087 Y137.833 E4.9806
G1 X94.180 Y14.800 E10.8912
G1 X14.800 Y14.800 E14.0991
; feature inner perimeter
G1 X99.430 Y14.400 F7200
G92 E0.0000
G1 X14.400 Y146.669 E6.3543 F1350
G1 X14.400 Y281.137 E11.7883
G1 X15.264 Y281.389 E11.8247
G1 X185.166 Y14.400 E24.6134
G1 X99.430 Y14.400 E28.0781
; feature outer perimeter
G1 X99.649 Y14.800 F7200
G92 E0.0000
G1 X14.800 Y146.787 E6.3408 F900
G1 X14.800 Y280.837 E11.7579
G1 X15.088 Y280.921 E11.7700
G1 X184.438 Y14.800 E24.5171
G1 X99.649 Y14.800 E27.9435
; feature solid layer
G1 X95.207 Y14.534 F7200
G92 E0.0000
G1 X97.494 Y16.820 E0.1307 F1440
G1 X97.272 Y17.165 E0.1472
G1 X94.986 Y14.878 E0.2779
G1 X94.764 Y15.222 E0.2944
G1 X97.051 Y17.509 E0.4251
G1 X96.830 Y17.853 E0.4417
G1 X94.543 Y15.567 E0.5724
G1 X94.322 Y15.911 E0.5889
G1 X96.608 Y18.198 E0.7196
G1 X96.387 Y18.542 E0.7361
G1 X94.100 Y16.255 E0.8668
G1 X93.879 Y16.600 E0.8833
G1 X96.166 Y18.886 E1.0140
G1 X95.944 Y19.231 E1.0306
G1 X93.658 Y16.944 E1.1612
G1 X93.436 Y17.288 E1.1778
G1 X95.723 Y19.575 E1.3085
G1 X95.502 Y19.919 E1.3250
G1 X93.215 Y17.633 E1.4557
G1 X92.994 Y17.977 E1.4722
G1 X95.280 Y20.264 E1.6029
G1 X95.059 Y20.608 E1.6195
G1 X92.772 Y18.321 E1.7501
G1 X92.551 Y18.666 E1.7667
G1 X94.838 Y20.952 E1.8974
G1 X94.616 Y21.297 E1.9139
G1 X92.329 Y19.010 E2.0446
G1 X92.108 Y19.354 E2.0611
G1 X94.395 Y21.641 E2.1918
G1 X94.173 Y21.985 E2.2084
G1 X91.887 Y19.699 E2.3390
G1 X91.665 Y20.043 E2.3556
G1 X93.952 Y22.330 E2.4863
G1 X93.731 Y22.674 E2.5028
G1 X91.444 Y20.387 E2.6335
G1 X91.223 Y20.732 E2.6500
G1 X93.509 Y23.018 E2.7807
G1 X93.288 Y23.363 E2.7973
G1 X91.001 Y21.076 E2.9279
G1 X90.780 Y21.420 E2.9445
G1 X93.067 Y23.707 E3.0752
G1 X92.845 Y24.051 E3.0917
G1 X90.559 Y21.765 E3.2224
G1 X90.337 Y22.109 E3.2389
G1 X92.624 Y24.396 E3.3696
G1 X92.403 Y24.740 E3.3861
G1 X90.116 Y22.453 E3.5168
G1 X89.895 Y22.798 E3.5334
G1 X92.181 Y25.084 E3.6641
G1 X91.960 Y25.429 E3.6806
G1 X89.673 Y23.142 E3.8113
G1 X89.452 Y23.486 E3.8278
G1 X91.739 Y25.773 E3.9585
G1 X91.517 Y26.117 E3.9750
G1 X89.231 Y23.831 E4.1057
G1 X89.009 Y24.175 E4.1223
G1 X91.296 Y26.462 E4.2529
G1 X91.074 Y26.806 E4.2695
G1 X88.788 Y24.519 E4.4002
G1 X88.566 Y24.864 E4.4167
G1 X90.853 Y27.150 E4.5474
G1 X90.632 Y27.495 E4.5639
G1 X88.345 Y25.208 E4.6946
G1 X88.124 Y25.552 E4.7112
G1 X90.410 Y27.839 E4.8418
G1 X90.189 Y28.183 E4.8584
G1 X87.902 Y25.897 E4.9891
G1 X87.681 Y26.241 E5.0056
G1 X89.968 Y28.528 E5.1363
G1 X89.746 Y28.872 E5.1528
G1 X87.460 Y26.585 E5.2835
G1 X87.238 Y26.930 E5.3001
G1 X89.525 Y29.216 E5.4307
G1 X89.304 Y29.561 E5.4473
G1 X87.017 Y27.274 E5.5780
G1 X86.796 Y27.618 E5.5945
G1 X89.082 Y29.905 E5.7252
G1 X88.861 Y30.249 E5.7417
G1 X86.574 Y27.963 E5.8724
G1 X86.353 Y28.307 E5.8889
G1 X88.640 Y30.594 E6.0196
G1 X88.418 Y30.938 E6.0362
G1 X86.132 Y28.651 E6.1669
G1 X85.910 Y28.996 E6.1834
G1 X88.197 Y31.282 E6.3141
G1 X87.975 Y31.627 E6.3306
G1 X85.689 Y29.340 E6.4613
G1 X85.467 Y29.684 E6.4778
G1 X87.754 Y31.971 E6.6085
G1 X87.533 Y32.315 E6.6251
G1 X85.246 Y30.029 E6.7558
G1 X85.025 Y30.373 E6.7723
G1 X87.311 Y32.660 E6.9030
G1 X87.090 Y33.004 E6.9195
G1 X84.803 Y30.717 E7.0502
G1 X84.582 Y31.062 E7.0667
G1 X86.869 Y33.348 E7.1974
G1 X86.647 Y33.693 E7.2140
G1 X84.361 Y31.406 E7.3446
G1 X84.139 Y31.750 E7.3612
G1 X86.426 Y34.037 E7.4919
G1 X86.205 Y34.381 E7.5084
G1 X83.918 Y32.095 E7.6391
G1 X83.697 Y32.439 E7.6556
G1 X85.983 Y34.726 E7.7863
G1 X85.762 Y35.070 E7.8029
G1 X83.475 Y32.783 E7.9335
G1 X83.254 Y33.128 E7.9501
G1 X85.541 Y35.414 E8.0808
G1 X85.319 Y35.759 E8.0973
G1 X83.033 Y33.472 E8.2280
G1 X82.811 Y33.816 E8.2445
G1 X85.098 Y36.103 E8.3752
G1 X84.877 Y36.447 E8.3918
G1 X82.590 Y34.161 E8.5224
G1 X82.369 Y34.505 E8.5390
G1 X84.655 Y36.792 E8.6697
G1 X84.434 Y37.136 E8.6862
G1 X82.147 Y34.849 E8.8169
G1 X81.926 Y35.194 E8.8334
G1 X84.212 Y37.480 E8.9641
G1 X83.991 Y37.825 E8.9806
G1 X81.704 Y35.538 E9.1113
G1 X81.483 Y35.882 E9.1279
G1 X83.770 Y38.169 E9.2586
G1 X83.548 Y38.513 E9.2751
G1 X81.262 Y36.227 E9.4058
G1 X81.040 Y36.571 E9.4223
G1 X83.327 Y38.858 E9.5530
G1 X83.106 Y39.202 E9.5695
G1 X80.819 Y36.915 E9.7002
G1 X80.598 Y37.260 E9.7168
G1 X82.884 Y39.546 E9.8474
G1 X82.663 Y39.891 E9.8640
G1 X80.376 Y37.604 E9.9947
G1 X80.155 Y37.948 E10.0112
G1 X82.442 Y40.235 E10.1419
G1 X82.220 Y40.579 E10.1584
G1 X79.934 Y38.293 E10.2891
G1 X79.712 Y38.637 E10.3057
G1 X81.999 Y40.924 E10.4363
G1 X81.778 Y41.268 E10.4529
G1 X79.491 Y38.981 E10.5836
G1 X79.270 Y39.326 E10.6001
G1 X81.556 Y41.612 E10.7308
G1 X81.335 Y41.957 E10.7473
G1 X79.048 Y39.670 E10.8780
G1 X78.827 Y40.014 E10.8946
G1 X81.113 Y42.301 E11.0252
G1 X80.892 Y42.645 E11.0418
G1 X78.605 Y40.359 E11.1725
G1 X78.384 Y40.703 E11.1890
G1 X80.671 Y42.990 E11.3197
G1 X80.449 Y43.334 E11.3362
G1 X78.163 Y41.047 E11.4669
G1 X77.941 Y41.392 E11.4835
G1 X80.228 Y43.678 E11.6141
G1 X80.007 Y44.023 E11.6307
G1 X77.720 Y41.736 E11.7614
G1 X77.499 Y42.080 E11.7779
G1 X79.785 Y44.367 E11.9086
G1 X79.564 Y44.711 E11.9251
G1 X77.277 Y42.425 E12.0558
G1 X77.056 Y42.769 E12.0723
G1 X79.343 Y45.055 E12.2030
G1 X79.121 Y45.400 E12.2196
G1 X76.835 Y43.113 E12.3503
G1 X76.613 Y43.458 E12.3668
G1 X78.900 Y45.744 E12.4975
G1 X78.679 Y46.088 E12.5140
G1 X76.392 Y43.802 E12.6447
G1 X76.171 Y44.146 E12.6612
G1 X78.457 Y46.433 E12.7919
G1 X78.236 Y46.777 E12.8085
G1 X75.949 Y44.490 E12.9391
G1 X75.728 Y44.835 E12.9557
G1 X78.015 Y47.121 E13.0864
G1 X77.793 Y47.466 E13.1029
G1 X75.507 Y45.179 E13.2336
G1 X75.285 Y45.523 E13.2501
G1 X77.572 Y47.810 E13.3808
G1 X77.350 Y48.154 E13.3974
G1 X75.064 Y45.868 E13.5280
G1 X74.842 Y46.212 E13.5446
G1 X77.129 Y48.499 E13.6753
G1 X76.908 Y48.843 E13.6918
G1 X74.621 Y46.556 E13.8225
G1 X74.400 Y46.901 E13.8390
G1 X76.686 Y49.187 E13.9697
G1 X76.465 Y49.532 E13.9863
G1 X74.178 Y47.245 E14.1169
G1 X73.957 Y47.589 E14.1335
G1 X76.244 Y49.876 E14.2642
G1 X76.022 Y50.220 E14.2807
G1 X73.736 Y47.934 E14.4114
G1 X73.514 Y48.278 E14.4279
G1 X75.801 Y50.565 E14.5586
G1 X75.580 Y50.909 E14.5751
G1 X73.293 Y48.622 E14.7058
G1 X73.072 Y48.967 E14.7224
G1 X75.358 Y51.253 E14.8531
G1 X75.137 Y51.598 E14.8696
G1 X72.850 Y49.311 E15.0003
G1 X72.629 Y49.655 E15.0168
G1 X74.916 Y51.942 E15.1475
G1 X74.694 Y52.286 E15.1640
G1 X72.408 Y50.000 E15.2947
G1 X72.186 Y50.344 E15.3113
G1 X74.473 Y52.631 E15.4419
G1 X74.251 Y52.975 E15.4585
G1 X71.965 Y50.688 E15.5892
G1 X71.743 Y51.033 E15.6057
G1 X74.030 Y53.319 E15.7364
G1 X73.809 Y53.664 E15.7529
G1 X71.522 Y51.377 E15.8836
G1 X71.301 Y51.721 E15.9002
G1 X73.587 Y54.008 E16.0308
G1 X73.366 Y54.352 E16.0474
G1 X71.079 Y52.066 E16.1781
G1 X70.858 Y52.410 E16.1946
G1 X73.145 Y54.697 E16.3253
G1 X72.923 Y55.041 E16.3418
G1 X70.637 Y52.754 E16.4725
G1 X70.415 Y53.099 E16.4891
G1 X72.702 Y55.385 E16.6197
G1 X72.481 Y55.730 E16.6363
G1 X70.194 Y53.443 E16.7670
G1 X69.973 Y53.787 E16.7835
G1 X72.259 Y56.074 E16.9142
G1 X72.038 Y56.418 E16.9307
G1 X69.751 Y54.132 E17.0614
G1 X69.530 Y54.476 E17.0780
G1 X71.817 Y56.763 E17.2086
G1 X71.595 Y57.107 E17.2252
G1 X69.309 Y54.820 E17.3559
